!!!!SEGMENT: Snf0120-Ecce_quam_bonum.krn
!!!id: Snf0120
!!!AGN: Motet
!!!voices: 4
!!!COM: Ludwig Senfl
!!!OTL: Ecce quam bonum
**kern	**text	**kern	**text	**kern	**text	**kern	**text
*part4	*part4	*part3	*part3	*part2	*part2	*part1	*part1
*staff4	*staff4	*staff3	*staff3	*staff2	*staff2	*staff1	*staff1
*I"Bassus	*	*I"Tenor	*	*I"Altus	*	*I"Superius	*
*I'B	*	*I'T	*	*I'A	*	*I'S	*
*clefF4	*	*clefGv2	*	*clefGv2	*	*clefG2	*
*	*	*	*	*	*	*	*
*k[]	*	*k[]	*	*k[]	*	*k[]	*
*	*	*	*	*	*	*	*
*M2/1	*	*M2/1	*	*M2/1	*	*M2/1	*
*met(C|)	*	*met(C|)	*	*met(C|)	*	*met(C|)	*
!!section: Prima pars: Ecce quam bonum
!!!OMD: Prima pars: Ecce quam bonum
=1	=1	=1	=1	=1	=1	=1	=1
0C	Ec-	1r	.	0r	.	0r	.
.	.	[1G	Ec-	.	.	.	.
=2	=2	=2	=2	=2	=2	=2	=2
1E	-ce	1G]	.	0r	.	0r	.
1G	quam	1B	-ce	.	.	.	.
=3	=3	=3	=3	=3	=3	=3	=3
0F	bo-	1d	quam	0r	.	0r	.
.	.	[1c	bo-	.	.	.	.
=4	=4	=4	=4	=4	=4	=4	=4
1C	-num	1c]	.	0r	.	0r	.
2r	.	1G	-num	.	.	.	.
2C	et	.	.	.	.	.	.
=5	=5	=5	=5	=5	=5	=5	=5
2C	quam	2r	.	0r	.	0r	.
2C	iu-	2G	et	.	.	.	.
2.E	-cun-	2G	quam	.	.	.	.
.	.	2G	iu-	.	.	.	.
4F	.	.	.	.	.	.	.
=6	=6	=6	=6	=6	=6	=6	=6
1.G	.	2.B	-cun-	0r	.	0r	.
.	.	4c	.	.	.	.	.
.	.	2d	.	.	.	.	.
2C	.	2e	.	.	.	.	.
=7	=7	=7	=7	=7	=7	=7	=7
2.F	.	2d	.	0r	.	0r	.
.	.	1c	.	.	.	.	.
4E	.	.	.	.	.	.	.
1D	.	.	.	.	.	.	.
.	.	2B	.	.	.	.	.
=8	=8	=8	=8	=8	=8	=8	=8
1C	-dum,	[0c	-dum,	0r	.	0r	.
1r	.	.	.	.	.	.	.
=9	=9	=9	=9	=9	=9	=9	=9
0F	ec-	1c]	.	1r	.	0r	.
.	.	1r	.	[1c	Ec-	.	.
=10	=10	=10	=10	=10	=10	=10	=10
1A	-ce	0c	ec-	1c]	.	1r	.
2c	quam,	.	.	1e	-ce	[1g	Ec-
[2C	ec-	.	.	.	.	.	.
=11	=11	=11	=11	=11	=11	=11	=11
2C]	.	1e	-ce	2.g	quam	1g]	.
1E	-ce	.	.	.	.	.	.
.	.	.	.	4f	.	.	.
.	.	1g	quam	2e	.	1b	-ce
2G	quam	.	.	[2d	bo-	.	.
=12	=12	=12	=12	=12	=12	=12	=12
2.D	bo-	0f	bo-	2d]	.	1dd	quam
.	.	.	.	4c	.	.	.
4E	.	.	.	4B	.	.	.
[1F	.	.	.	2A	.	[1cc	bo-
.	.	.	.	[2a	.	.	.
=13	=13	=13	=13	=13	=13	=13	=13
2F]	.	1c	-num	2a]	.	1cc]	.
2C	-num	.	.	4g	.	.	.
.	.	.	.	4f	.	.	.
2r	.	2r	.	1e	.	1g	-num
2C	et	2c	et	.	.	.	.
=14	=14	=14	=14	=14	=14	=14	=14
2C	quam	2c	quam	1e	-num	2r	.
2C	iu-	2c	iu-	.	.	2g	et
1c	-cun-	2.e	-cun-	2r	.	2g	quam
.	.	.	.	2c	et	2g	iu-
.	.	4f	.	.	.	.	.
=15	=15	=15	=15	=15	=15	=15	=15
1G	-dum,	1.g	.	2d	quam	2.b	-cun-
.	.	.	.	2d	iu-	.	.
.	.	.	.	.	.	4cc	.
2r	.	.	.	2G	-cun-	2dd	.
2c	et	2c	.	2g	.	2ee	.
=16	=16	=16	=16	=16	=16	=16	=16
2F	quam	2.f	.	1a	.	2dd	.
2F	iu-	.	.	.	.	1cc	.
.	.	4e	.	.	.	.	.
1G	-cun-	1d	.	1g	.	.	.
.	.	.	.	.	.	2b	.
=17	=17	=17	=17	=17	=17	=17	=17
1C	-dum	0c	-dum	1e	-dum	[0cc	-dum
[1F	ha-	.	.	[1a	ha-	.	.
=18	=18	=18	=18	=18	=18	=18	=18
2F]	.	1.f	ha-	2a]	.	0cc]	.
2F	-bi-	.	.	2a	-bi-	.	.
1F	-ta-	.	.	[1a	-ta-	.	.
.	.	2f	-bi-	.	.	.	.
=19	=19	=19	=19	=19	=19	=19	=19
1F	-re	1f	-ta-	1a]	.	1.cc	ha-
2r	.	1f	-re	1a	-re	.	.
[2F	fra-	.	.	.	.	2cc	-bi-
=20	=20	=20	=20	=20	=20	=20	=20
4F]	.	1f	fra-	1a	fra-	1cc	-ta-
4G	.	.	.	.	.	.	.
4A	.	.	.	.	.	.	.
4B	.	.	.	.	.	.	.
2c	.	1e	-tres	1g	-tres	1cc	-re
2C	-tres,	.	.	.	.	.	.
=21	=21	=21	=21	=21	=21	=21	=21
2r	.	1f	in	2r	.	1cc	fra-
2F	fra-	.	.	2a	in	.	.
2G	-tres	1d	u-	1g	u-	1b	-tres
2G	in	.	.	.	.	.	.
=22	=22	=22	=22	=22	=22	=22	=22
4A	u-	[0c	-num!	2e	.	1cc	in
4G	.	.	.	.	.	.	.
4F	.	.	.	4a	.	.	.
4E	.	.	.	4g	.	.	.
1F	.	.	.	4f	.	1a	u-
.	.	.	.	4e	.	.	.
.	.	.	.	2f	.	.	.
=23	=23	=23	=23	=23	=23	=23	=23
[0C	-num!	0c_	.	0e	-num!	[0g	-num!
=24	=24	=24	=24	=24	=24	=24	=24
0C]	.	0c]	.	1r	.	0g]	.
.	.	.	.	1e	Sic-	.	.
=25	=25	=25	=25	=25	=25	=25	=25
0r	.	0r	.	2f	-ut	1r	.
.	.	.	.	2f	un-	.	.
.	.	.	.	1g	-guen-	1b	Sic-
=26	=26	=26	=26	=26	=26	=26	=26
0r	.	0r	.	2c	-tum	2cc	-ut
.	.	.	.	2c	in	2cc	un-
.	.	.	.	2f	ca-	1dd	-guen-
.	.	.	.	2f	-pi-	.	.
=27	=27	=27	=27	=27	=27	=27	=27
1E	Sic-	0r	.	2e	-te,	2g	-tum
.	.	.	.	2g	in	2g	in
2F	-ut	.	.	4a	ca-	2cc	ca-
.	.	.	.	4g	.	.	.
2F	un-	.	.	4f	.	2cc	-pi-
.	.	.	.	4e	.	.	.
=28	=28	=28	=28	=28	=28	=28	=28
1G	-guen-	1B	Sic-	2d	.	2b	-te,
.	.	.	.	2d	-pi-	2dd	in
2C	-tum	2c	-ut	2c	-te,	4ee	ca-
.	.	.	.	.	.	4dd	.
2C	in	2c	un-	2G	in	4cc	.
.	.	.	.	.	.	4b	.
=29	=29	=29	=29	=29	=29	=29	=29
2F	ca-	1d	-guen-	2A	ca-	2a	.
2F	-pi-	.	.	2A	-pi-	2a	-pi-
2E	-te,	2G	-tum	1B	-te,	1g	-te,
2G	in	2G	in	.	.	.	.
=30	=30	=30	=30	=30	=30	=30	=30
4A	ca-	2c	ca-	2r	.	0r	.
4G	.	.	.	.	.	.	.
4F	.	2c	-pi-	2c	in	.	.
4E	.	.	.	.	.	.	.
2D	.	2B	-te,	2d	ca-	.	.
2D	-pi-	2d	in	2A	-pi-	.	.
=31	=31	=31	=31	=31	=31	=31	=31
1C	-te,	4e	ca-	1c	-te,	1r	.
.	.	4d	.	.	.	.	.
.	.	4c	.	.	.	.	.
.	.	4B	.	.	.	.	.
1r	.	2A	.	2r	.	2r	.
.	.	2A	-pi-	2f	in	2a	in
=32	=32	=32	=32	=32	=32	=32	=32
0r	.	1G	-te,	4g	ca-	4b	ca-
.	.	.	.	4f	.	4a	.
.	.	.	.	4e	.	4g	.
.	.	.	.	4d	.	4f	.
.	.	1r	.	2c	.	2e	.
.	.	.	.	2c	-pi-	2e	-pi-
=33	=33	=33	=33	=33	=33	=33	=33
1r	.	1r	.	1d	-te,	2d	-te,
.	.	.	.	.	.	2a	in
2r	.	2d	in	1r	.	4b	ca-
.	.	.	.	.	.	4a	.
2G	in	4e	ca-	.	.	4g	.
.	.	4d	.	.	.	4f	.
=34	=34	=34	=34	=34	=34	=34	=34
4A	ca-	4c	.	2r	.	2e	.
4G	.	4B	.	.	.	.	.
4F	.	4A	.	2c	in	1f	.
4E	.	4G	.	.	.	.	.
2D	.	2F	.	2d	ca-	.	.
2D	-pi-	2F	-pi-	2A	-pi-	2f	-pi-
=35	=35	=35	=35	=35	=35	=35	=35
1C	-te,	1G	-te,	[0c	-te,	0e	-te,
2r	.	1r	.	.	.	.	.
2E	sic-	.	.	.	.	.	.
=36	=36	=36	=36	=36	=36	=36	=36
2F	-ut	1r	.	1c]	.	0r	.
2F	un-	.	.	.	.	.	.
1G	-guen-	1B	sic-	1r	.	.	.
=37	=37	=37	=37	=37	=37	=37	=37
2C	-tum	2c	-ut	1e	sic-	0r	.
2C	in	2c	un-	.	.	.	.
2F	ca-	1d	-guen-	2f	-ut	.	.
2F	-pi-	.	.	2f	un-	.	.
=38	=38	=38	=38	=38	=38	=38	=38
2E	-te,	2G	-tum	1g	-guen-	1b	sic-
2G	in	2B	in	.	.	.	.
4A	ca-	2A	ca-	2c	-tum	2cc	-ut
4G	.	.	.	.	.	.	.
4F	.	[2c	.	2c	in	2cc	un-
4E	.	.	.	.	.	.	.
=39	=39	=39	=39	=39	=39	=39	=39
2D	.	2c]	.	2f	ca-	1dd	-guen-
2D	-pi-	2B	-pi-	2f	-pi-	.	.
1C	-te,	2c	-te,	2e	-te,	2g	-tum
.	.	2c	in	2e	in	2g	in
=40	=40	=40	=40	=40	=40	=40	=40
2r	.	1.e	ca-	1.g	ca-	2cc	ca-
2C	in	.	.	.	.	2cc	-pi-
2.E	ca-	.	.	.	.	[1b	-te
.	.	2e	-pi-	2g	-pi-	.	.
4F	.	.	.	.	.	.	.
=41	=41	=41	=41	=41	=41	=41	=41
1.G	.	[0d	-te	0g	-te	0b_	.
2G	-pi-	.	.	.	.	.	.
=42	=42	=42	=42	=42	=42	=42	=42
1G	-te	0d]	.	2r	.	1b]	.
.	.	.	.	1g	quod	.	.
1r	.	.	.	.	.	2r	.
.	.	.	.	2f	de-	[2dd	quod
=43	=43	=43	=43	=43	=43	=43	=43
0r	.	0r	.	2g	-scen-	2dd]	.
.	.	.	.	2e	.	2cc	de-
.	.	.	.	1d	.	2dd	-scen-
.	.	.	.	.	.	2b	.
=44	=44	=44	=44	=44	=44	=44	=44
0r	.	0r	.	2c	.	1a	.
.	.	.	.	2d	.	.	.
.	.	.	.	2B	.	2g	.
.	.	.	.	[2A	.	2a	.
=45	=45	=45	=45	=45	=45	=45	=45
0r	.	0r	.	2A]	.	2f	.
.	.	.	.	1c	.	1e	.
.	.	.	.	2B	.	[2g	.
=46	=46	=46	=46	=46	=46	=46	=46
1r	.	0r	.	2c	.	2g]	.
.	.	.	.	2A	.	2f	.
2r	.	.	.	2G	.	2g	.
[2c	quod	.	.	2A	.	2e	.
=47	=47	=47	=47	=47	=47	=47	=47
2c]	.	2r	.	2F	.	1d	-dit,
2B	de-	1g	quod	2G	-dit,	.	.
2c	-scen-	.	.	2r	.	2r	.
2A	.	2f	de-	2c	quod	2a	de-
=48	=48	=48	=48	=48	=48	=48	=48
1G	.	2g	-scen-	2d	.	2b	-scen-
.	.	2e	.	2e	de-	2g	.
2F	.	1d	.	2f	-scen-	2a	.
2G	.	.	.	2d	.	2g	-dit,
=49	=49	=49	=49	=49	=49	=49	=49
2E	.	2c	.	2e	.	1r	.
1D	.	2d	.	2f	.	.	.
.	.	2B	.	2d	.	2r	.
[2F	.	[2A	.	2c	-dit,	[2a	quod
=50	=50	=50	=50	=50	=50	=50	=50
2F]	.	2A]	.	2r	.	2a]	.
2E	.	1c	.	2G	de-	2g	de-
2F	.	.	.	2A	-scen-	1f	-scen-
2D	.	2B	.	2F	.	.	.
=51	=51	=51	=51	=51	=51	=51	=51
1C	-dit	2c	.	2G	.	2e	.
.	.	2A	.	1c	.	2c	.
1r	.	1G	-dit	.	.	1d	.
.	.	.	.	2B	.	.	.
=52	=52	=52	=52	=52	=52	=52	=52
0r	.	2r	.	1c	-dit	[0a	-dit
.	.	2F	in	.	.	.	.
.	.	1F	bar-	2r	.	.	.
.	.	.	.	2f	in	.	.
=53	=53	=53	=53	=53	=53	=53	=53
2r	.	2.F	-bam,	1f	bar-	1a]	.
2F	in	.	.	.	.	.	.
.	.	4G	.	.	.	.	.
1F	bar-	1A	.	2.c	-bam,	2r	.
.	.	.	.	.	.	2cc	in
.	.	.	.	4d	.	.	.
=54	=54	=54	=54	=54	=54	=54	=54
2.C	-bam,	2r	.	0e	.	1cc	bar-
.	.	2c	in	.	.	.	.
4D	.	.	.	.	.	.	.
[1E	.	1c	bar-	.	.	2.g	-bam,
.	.	.	.	.	.	4a	.
=55	=55	=55	=55	=55	=55	=55	=55
1E]	.	2.G	-bam,	2r	.	0b	.
.	.	.	.	2g	in	.	.
.	.	4A	.	.	.	.	.
2r	.	[1B	.	1g	bar-	.	.
2G	in	.	.	.	.	.	.
=56	=56	=56	=56	=56	=56	=56	=56
1G	bar-	1B]	.	2.d	-bam,	2r	.
.	.	.	.	.	.	2dd	in
.	.	.	.	4e	.	.	.
2.D	-bam,	2r	.	2f	.	1dd	bar-
.	.	2d	in	2f	in	.	.
4E	.	.	.	.	.	.	.
=57	=57	=57	=57	=57	=57	=57	=57
0F	.	1d	bar-	1f	bar-	2.a	-bam,
.	.	.	.	.	.	4b	.
.	.	2.A	-bam,	2.c	-bam,	1cc	.
.	.	4B	.	4d	.	.	.
=58	=58	=58	=58	=58	=58	=58	=58
1r	.	1c	.	1e	.	1r	.
[1F	bar-	2r	.	[1f	bar-	[1a	bar-
.	.	[2c	bar-	.	.	.	.
=59	=59	=59	=59	=59	=59	=59	=59
1F]	.	2c]	.	1f]	.	1a]	.
.	.	2c	-bam	.	.	.	.
1F	-bam	[1d	Aa-	1f	-bam	1a	-bam
=60	=60	=60	=60	=60	=60	=60	=60
1.G	Aa-	2d]	.	1.d	Aa-	1.b	Aa-
.	.	2B	.	.	.	.	.
.	.	2B	.	.	.	.	.
2C	.	2c	.	2e	.	2g	.
=61	=61	=61	=61	=61	=61	=61	=61
[0C	-ron,	[0c	-ron,	[0e	-ron,	[0g	-ron,
=62	=62	=62	=62	=62	=62	=62	=62
0C]	.	0c]	.	1e]	.	0g]	.
.	.	.	.	1r	.	.	.
=63	=63	=63	=63	=63	=63	=63	=63
1r	.	0c	.	1.g	quod	0r	.
[1c	quod	.	.	.	.	.	.
.	.	.	.	2e	de-	.	.
=64	=64	=64	=64	=64	=64	=64	=64
2c]	.	0r	.	2e	-scen-	0r	.
2A	de-	.	.	2c	.	.	.
2A	-scen-	.	.	[1c	.	.	.
2F	.	.	.	.	.	.	.
=65	=65	=65	=65	=65	=65	=65	=65
1.F	.	0r	.	2c]	.	0r	.
.	.	.	.	2A	.	.	.
.	.	.	.	1A	-dit,	.	.
2D	.	.	.	.	.	.	.
=66	=66	=66	=66	=66	=66	=66	=66
1D	-dit,	0r	.	1.a	quod	0r	.
[1d	quod	.	.	.	.	.	.
.	.	.	.	2f	de-	.	.
=67	=67	=67	=67	=67	=67	=67	=67
2d]	.	0r	.	2f	-scen-	0r	.
2B	de-	.	.	2d	.	.	.
2B	-scen-	.	.	[1d	.	.	.
2G	.	.	.	.	.	.	.
=68	=68	=68	=68	=68	=68	=68	=68
1.G	.	0r	.	2d]	.	0r	.
.	.	.	.	2B	.	.	.
.	.	.	.	2B	.	.	.
2E	.	.	.	2G	.	.	.
=69	=69	=69	=69	=69	=69	=69	=69
2E	.	0r	.	1G	-dit,	0r	.
2C	.	.	.	.	.	.	.
2C	-dit,	.	.	1g	de-	.	.
2G	de-	.	.	.	.	.	.
=70	=70	=70	=70	=70	=70	=70	=70
2A	-scen-	0r	.	2f	-scen-	0r	.
1c	.	.	.	2e	.	.	.
.	.	.	.	1d	.	.	.
2B	.	.	.	.	.	.	.
=71	=71	=71	=71	=71	=71	=71	=71
0c	-dit,	0r	.	1c	-dit,	0r	.
.	.	.	.	1r	.	.	.
=72	=72	=72	=72	=72	=72	=72	=72
1r	.	0r	.	1.g	quod	0r	.
[1c	quod	.	.	.	.	.	.
.	.	.	.	2e	de-	.	.
=73	=73	=73	=73	=73	=73	=73	=73
2c]	.	0r	.	2e	-scen-	1.cc	quod
2A	de-	.	.	2c	.	.	.
2A	-scen-	.	.	[1c	.	.	.
2F	.	.	.	.	.	2a	de-
=74	=74	=74	=74	=74	=74	=74	=74
1.F	.	0r	.	2c]	.	2a	-scen-
.	.	.	.	2A	.	2f	.
.	.	.	.	1A	-dit,	[1f	.
2D	.	.	.	.	.	.	.
=75	=75	=75	=75	=75	=75	=75	=75
1D	-dit,	0r	.	1.a	quod	2f]	.
.	.	.	.	.	.	2d	.
[1d	quod	.	.	.	.	1d	-dit,
.	.	.	.	2f	de-	.	.
=76	=76	=76	=76	=76	=76	=76	=76
2d]	.	0r	.	2f	-scen-	1.dd	quod
2B	de-	.	.	2d	.	.	.
2B	-scen-	.	.	[1d	.	.	.
2G	.	.	.	.	.	2b	de-
=77	=77	=77	=77	=77	=77	=77	=77
1.G	.	0r	.	2d]	.	2b	-scen-
.	.	.	.	2B	.	2g	.
.	.	.	.	2B	.	[1g	.
2E	.	.	.	2G	.	.	.
=78	=78	=78	=78	=78	=78	=78	=78
2E	.	0r	.	1G	-dit,	2g]	.
2C	.	.	.	.	.	2e	.
2C	-dit,	.	.	1g	de-	2e	.
2G	de-	.	.	.	.	2d	.
=79	=79	=79	=79	=79	=79	=79	=79
2A	-scen-	0r	.	2f	-scen-	1c	-dit,
1c	.	.	.	2e	.	.	.
.	.	.	.	1d	.	1r	.
2B	.	.	.	.	.	.	.
=80	=80	=80	=80	=80	=80	=80	=80
0c	-dit,	1r	.	1c	-dit,	0r	.
.	.	[1g	quod	1r	.	.	.
=81	=81	=81	=81	=81	=81	=81	=81
1r	.	2g]	.	1.g	quod	1r	.
.	.	2e	de-	.	.	.	.
[1c	quod	2e	-scen-	.	.	2r	.
.	.	2c	.	2e	de-	[2cc	quod
=82	=82	=82	=82	=82	=82	=82	=82
2c]	.	1.c	.	2e	-scen-	1cc]	.
2A	de-	.	.	2c	.	.	.
2A	-scen-	.	.	[1c	.	2a	de-
2F	.	2A	.	.	.	2a	-scen-
=83	=83	=83	=83	=83	=83	=83	=83
1.F	.	1A	-dit,	2c]	.	2f	.
.	.	.	.	2A	.	1.f	.
.	.	[1a	quod	1A	-dit,	.	.
2D	.	.	.	.	.	.	.
=84	=84	=84	=84	=84	=84	=84	=84
1D	-dit,	2a]	.	1.a	quod	2d	.
.	.	2f	de-	.	.	1d	-dit,
[1d	quod	2f	-scen-	.	.	.	.
.	.	2d	.	2f	de-	[2dd	quod
=85	=85	=85	=85	=85	=85	=85	=85
2d]	.	1.d	.	2f	-scen-	1dd]	.
2B	de-	.	.	2d	.	.	.
2B	-scen-	.	.	[1d	.	2b	de-
2G	.	2B	.	.	.	2b	-scen-
=86	=86	=86	=86	=86	=86	=86	=86
1.G	.	2B	.	2d]	.	2g	.
.	.	2G	.	2B	.	1.g	.
.	.	1G	-dit,	2B	.	.	.
2E	.	.	.	2G	.	.	.
=87	=87	=87	=87	=87	=87	=87	=87
2E	.	1.g	quod	1G	-dit,	2e	.
2C	.	.	.	.	.	1e	.
[1C	-dit,	.	.	2r	.	.	.
.	.	2e	de-	2g	de-	2c	.
=88	=88	=88	=88	=88	=88	=88	=88
1C]	.	2.e	-scen-	2.g	-scen-	1c	-dit
.	.	8dL	.	4f	.	.	.
.	.	8cJ	.	.	.	.	.
1G	de-	1B	.	2e	.	1r	.
.	.	.	.	[2d	.	.	.
=89	=89	=89	=89	=89	=89	=89	=89
2F	-scen-	2A	.	2d]	.	2r	.
2E	.	1G	.	1c	.	2cc	in
1D	.	.	.	.	.	2dd	o-
.	.	2F	.	2B	.	2ff	.
=90	=90	=90	=90	=90	=90	=90	=90
1C	-dit	2G	-dit	2c	-dit	1ee	.
.	.	2c	in	2e	in	.	.
1r	.	2d	o-	2f	o-	1a	-ram,
.	.	2f	.	2a	.	.	.
=91	=91	=91	=91	=91	=91	=91	=91
2r	.	1e	.	2g	.	0r	.
2C	in	.	.	4c	-ram,	.	.
.	.	.	.	4e	in	.	.
2D	o-	1A	-ram,	2f	o-	.	.
2F	.	.	.	2a	.	.	.
=92	=92	=92	=92	=92	=92	=92	=92
1E	.	2r	.	4g	.	2r	.
.	.	.	.	4f	.	.	.
.	.	2G	in	4e	.	2b	in
.	.	.	.	4d	.	.	.
1AA	-ram,	2A	o-	1c	.	2cc	o-
.	.	2c	.	.	.	2ee	.
=93	=93	=93	=93	=93	=93	=93	=93
1r	.	1B	.	2G	-ram,	1dd	.
.	.	.	.	2d	in	.	.
2r	.	2E	-ram,	2e	o-	2g	-ram,
2E	in	2e	in	2g	.	2g	in
=94	=94	=94	=94	=94	=94	=94	=94
2F	o-	2d	o-	2f	.	2a	o-
2A	.	2c	.	2e	.	2cc	.
1G	.	1d	.	1g	-ram	1b	.
=95	=95	=95	=95	=95	=95	=95	=95
1C	-ram	1c	-ram	2r	.	1e	-ram
.	.	.	.	1g	ve-	.	.
[1G	ve-	1r	.	.	.	[1b	ve-
.	.	.	.	2g	-sti-	.	.
=96	=96	=96	=96	=96	=96	=96	=96
2G]	.	1.d	ve-	2g	-men-	2b]	.
2G	-sti-	.	.	2g	-ti	2b	-sti-
2G	-men-	.	.	2r	.	2b	-men-
2G	-ti	2d	-sti-	2g	e-	2b	-ti
=97	=97	=97	=97	=97	=97	=97	=97
2F	e-	2d	-men-	2a	.	2a	e-
2G	.	2d	-ti	1g	.	2b	.
1A	.	2.c	e-	.	.	1cc	.
.	.	.	.	2f	.	.	.
.	.	4d	.	.	.	.	.
=98	=98	=98	=98	=98	=98	=98	=98
[0G	-ius;	1e	.	[0g	-ius;	[0b	-ius;
.	.	1d	-ius;	.	.	.	.
=99	=99	=99	=99	=99	=99	=99	=99
0G_	.	1r	.	0g]	.	1b]	.
.	.	[1g	sic-	.	.	1r	.
=100	=100	=100	=100	=100	=100	=100	=100
0G]	.	1g]	.	0r	.	0dd	sic-
.	.	1d	-ut	.	.	.	.
=101	=101	=101	=101	=101	=101	=101	=101
0r	.	1f	ros	0r	.	1a	-ut
.	.	[1e	Her-	.	.	1cc	ros
=102	=102	=102	=102	=102	=102	=102	=102
0G	sic-	1e]	.	1r	.	0b	Her-
.	.	1d	-mon,	[1d	sic-	.	.
=103	=103	=103	=103	=103	=103	=103	=103
1D	-ut	0r	.	1d]	.	0a	-mon,
1F	ros	.	.	1A	-ut	.	.
=104	=104	=104	=104	=104	=104	=104	=104
0E	Her-	0r	.	1c	ros	0r	.
.	.	.	.	[1B	Her-	.	.
=105	=105	=105	=105	=105	=105	=105	=105
0D	-mon,	1d	qui	1B]	.	1r	.
.	.	2d	de-	1A	-mon,	1a	qui
.	.	[2f	-scen-	.	.	.	.
=106	=106	=106	=106	=106	=106	=106	=106
0r	.	2f]	.	0r	.	2a	de-
.	.	4e	.	.	.	1cc	-scen-
.	.	4d	.	.	.	.	.
.	.	2c	.	.	.	.	.
.	.	2d	.	.	.	4b	.
.	.	.	.	.	.	4a	.
=107	=107	=107	=107	=107	=107	=107	=107
0r	.	2e	.	0r	.	2g	.
.	.	2c	.	.	.	1cc	.
.	.	1d	.	.	.	.	.
.	.	.	.	.	.	2b	.
=108	=108	=108	=108	=108	=108	=108	=108
1A	qui	0c	-dit,	1r	.	2cc	-dit,
.	.	.	.	.	.	2a	de-
2A	de-	.	.	1e	qui	2.cc	-scen-
[2c	-scen-	.	.	.	.	.	.
.	.	.	.	.	.	8bL	.
.	.	.	.	.	.	8aJ	.
=109	=109	=109	=109	=109	=109	=109	=109
2c]	.	0r	.	2e	de-	2.g	.
4B	.	.	.	1g	-scen-	.	.
4A	.	.	.	.	.	4a	.
2G	.	.	.	.	.	2b	.
2A	.	.	.	4f	.	2cc	.
.	.	.	.	4e	.	.	.
=110	=110	=110	=110	=110	=110	=110	=110
2B	.	0r	.	2d	.	2dd	.
2G	.	.	.	1g	.	2ee	.
1A	.	.	.	.	.	1cc	.
.	.	.	.	2f#i	.	.	.
=111	=111	=111	=111	=111	=111	=111	=111
0G	-dit,	1r	.	0g	-dit,	1b	-dit,
.	.	1d	qui	.	.	1r	.
=112	=112	=112	=112	=112	=112	=112	=112
1r	.	2d	de-	0r	.	1a	qui
.	.	1f	-scen-	.	.	.	.
1A	qui	.	.	.	.	2a	de-
.	.	4e	.	.	.	[2cc	-scen-
.	.	4d	.	.	.	.	.
=113	=113	=113	=113	=113	=113	=113	=113
2A	de-	2.c	.	1e	qui	2cc]	.
1c	-scen-	.	.	.	.	4b	.
.	.	4d	.	.	.	4a	.
.	.	2e	.	2e	de-	2.g	.
4B	.	4d	.	[2g	-scen-	.	.
4A	.	4c	.	.	.	4a	.
=114	=114	=114	=114	=114	=114	=114	=114
2G	.	2d	.	2g]	.	2b	.
2A	.	2c	.	4f	.	2cc	.
.	.	.	.	4e	.	.	.
2B	.	1g	.	2d	.	2dd	.
2G	.	.	.	2g	.	[2ee	.
=115	=115	=115	=115	=115	=115	=115	=115
1A	.	1c	.	2e	.	4ee]	.
.	.	.	.	.	.	4dd	.
.	.	.	.	2f	.	1cc	.
1G	-dit,	1d	.	1g	.	.	.
.	.	.	.	.	.	2b	.
=116	=116	=116	=116	=116	=116	=116	=116
0r	.	2c	-dit,	2.e	.	2cc	-dit,
.	.	1e	qui	.	.	1gg	qui
.	.	.	.	4f	.	.	.
.	.	.	.	2g	.	.	.
.	.	2c	de-	[2a	.	2ee	de-
=117	=117	=117	=117	=117	=117	=117	=117
2r	.	2d	-scen-	2a]	.	2ff	-scen-
1c	qui	2e	.	2g	.	2gg	.
.	.	2A	.	1a	-dit,	1cc	-dit,
2A	de-	2c	.	.	.	.	.
=118	=118	=118	=118	=118	=118	=118	=118
2B	-scen-	2d	.	2r	.	2r	.
2c	.	2e	.	2g	de-	1cc	qui
1F	-dit,	2f	.	2a	-scen-	.	.
.	.	2c	-dit,	2f	.	2a	de-
=119	=119	=119	=119	=119	=119	=119	=119
1r	.	2r	.	2g	.	2b	-scen-
.	.	2c	qui	2e	-dit,	2cc	.
2r	.	2d	de-	2r	.	2f	-dit,
[2A	qui	[2e	-scen-	[2c	qui	[2cc	qui
=120	=120	=120	=120	=120	=120	=120	=120
2A]	.	2e]	.	2c]	.	2cc]	.
2F	de-	2f	.	2d	de-	2a	de-
2G	-scen-	2d	.	2B	-scen-	2b	-scen-
2A	.	2c	.	2A	.	2cc	.
=121	=121	=121	=121	=121	=121	=121	=121
1D	-dit,	1.d	.	1a	.	2f	.
.	.	.	.	.	.	2.ff	.
2r	.	.	.	1d	-dit	.	.
.	.	.	.	.	.	4ee	.
[2G	qui	4B	.	.	.	4dd	.
.	.	4c	.	.	.	4cc	.
=122	=122	=122	=122	=122	=122	=122	=122
2G]	.	4d	.	2r	.	4b	.
.	.	4B	.	.	.	4g	.
2E	de-	2e	.	2g	in	1cc	.
2F	-scen-	1d	.	2f	Mon-	.	.
2G	.	.	.	2d	-tem	2b	.
=123	=123	=123	=123	=123	=123	=123	=123
2C	-dit	1c	-dit	1e	Si-	1cc	-dit
2c	in	.	.	.	.	.	.
2B	Mon-	1r	.	2d	-on,	1r	.
2G	-tem	.	.	2g	.	.	.
=124	=124	=124	=124	=124	=124	=124	=124
1c	Si-	2r	.	2.e	.	2r	.
.	.	2c	in	.	.	2cc	in
.	.	.	.	4f	.	.	.
1G	-on,	2d	Mon-	4g	.	2b	Mon-
.	.	.	.	4G	.	.	.
.	.	2e	-tem	2B	.	2g	-tem
=125	=125	=125	=125	=125	=125	=125	=125
2r	.	2c	Si-	4A	.	1cc	Si-
.	.	.	.	4B	.	.	.
2F	in	2A	.	4c	.	.	.
.	.	.	.	4d	.	.	.
2E	Mon-	2B	.	1e	.	1g	-on,
2C	-tem	2c	.	.	.	.	.
=126	=126	=126	=126	=126	=126	=126	=126
1F	Si-	2A	.	2r	.	2r	.
.	.	2F	.	2f	in	2a	in
1C	-on,	2G	.	2e	Mon-	2g	Mon-
.	.	2A	.	2c	-tem	2e	-tem
=127	=127	=127	=127	=127	=127	=127	=127
1r	.	2F	-on,	1f	Si-	1a	Si-
.	.	2f	in	.	.	.	.
2r	.	2e	Mon-	2c	-on,	1g	-on,
2c	in	2c	-tem	2e	in	.	.
=128	=128	=128	=128	=128	=128	=128	=128
2B	Mon-	1r	.	2d	Mon-	1r	.
2G	-tem	.	.	2g	-tem	.	.
1c	Si-	2r	.	2.e	Si-	2r	.
.	.	2c	in	.	.	2cc	in
.	.	.	.	4f	.	.	.
=129	=129	=129	=129	=129	=129	=129	=129
1G	-on,	2d	Mon-	4g	.	2b	Mon-
.	.	.	.	4G	.	.	.
.	.	2e	-tem	2B	.	2g	-tem
2r	.	2c	Si-	4A	.	1cc	Si-
.	.	.	.	4B	.	.	.
2F	in	2A	.	4c	.	.	.
.	.	.	.	4d	.	.	.
=130	=130	=130	=130	=130	=130	=130	=130
2E	Mon-	2B	.	1e	-on.	1g	-on.
2C	-tem	2c	.	.	.	.	.
1F	Si-	4A	.	[1c	Ec-	1r	.
.	.	4B	.	.	.	.	.
.	.	4c	.	.	.	.	.
.	.	4d	.	.	.	.	.
=131	=131	=131	=131	=131	=131	=131	=131
0C	-on.	2.e	.	1c]	.	0g	Ec-
.	.	4d	.	.	.	.	.
.	.	4c	.	1e	-ce	.	.
.	.	4B	.	.	.	.	.
.	.	2c	.	.	.	.	.
=132	=132	=132	=132	=132	=132	=132	=132
0r	.	1G	-on.	1g	quam	1b	-ce
.	.	1r	.	[1f	bo-	1dd	quam
=133	=133	=133	=133	=133	=133	=133	=133
0r	.	0r	.	1f]	.	0cc	bo-
.	.	.	.	1c	-num,	.	.
=134	=134	=134	=134	=134	=134	=134	=134
0G	Ec-	1r	.	1r	.	1g	-num,
.	.	1g	Ec-	[1d	ec-	1r	.
=135	=135	=135	=135	=135	=135	=135	=135
1B	-ce	2G	-ce	1d]	.	2r	.
.	.	2g	quam	.	.	2dd	quam
=-	=-	=-	=-	=-	=-	=-	=-
*	*	*M3/1	*	*	*	*	*
*	*	*met(3)	*	*	*	*	*
*	*	*Xtuplet	*	*	*	*	*
1d	quam	3f	bo-	1f	-ce	2.a	bo-
.	.	3d	.	.	.	.	.
.	.	3f	.	.	.	.	.
.	.	.	.	.	.	4b	.
=136	=136	=136	=136	=136	=136	=136	=136
*	*	*M2/1	*	*	*	*	*
*	*	*met(C|)	*	*	*	*	*
*	*	*tuplet	*	*	*	*	*
0c	bo-	2e	.	1a	quam	4cc	.
.	.	.	.	.	.	4dd	.
.	.	2c	.	.	.	1ee	.
.	.	1e	.	[1g	bo-	.	.
.	.	.	.	.	.	4dd	.
.	.	.	.	.	.	4cc	.
=137	=137	=137	=137	=137	=137	=137	=137
1G	-num	2.d	.	1g]	.	2b	-num
.	.	.	.	.	.	2g	et
.	.	4c	.	.	.	.	.
2r	.	2B	.	1d	-num	2g	quam
2G	et	2G	.	.	.	2g	iu-
=138	=138	=138	=138	=138	=138	=138	=138
2G	quam	1g	-num	2r	.	2.b	-cun-
2G	iu-	.	.	2d	et	.	.
.	.	.	.	.	.	4cc	.
2.B	-cun-	1r	.	2d	quam	1dd	.
.	.	.	.	2d	iu-	.	.
4c	.	.	.	.	.	.	.
=139	=139	=139	=139	=139	=139	=139	=139
1.d	.	0r	.	2.f	-cun-	1dd	-dum,
.	.	.	.	4g	.	.	.
.	.	.	.	4a	.	2r	.
.	.	.	.	4d	.	.	.
2G	.	.	.	[2g	.	2d	iu-
=140	=140	=140	=140	=140	=140	=140	=140
2.c	.	2r	.	4g]	.	2e	-cun-
.	.	.	.	4f	.	.	.
.	.	2c	et	4e	.	1g	.
4B	.	.	.	4d	.	.	.
1A	.	2c	quam	2e	.	.	.
.	.	2c	iu-	4d	.	2f#i	.
.	.	.	.	4c	.	.	.
=141	=141	=141	=141	=141	=141	=141	=141
0G	-dum	2d	-cun-	2B	.	[0g	-dum
.	.	2e	.	1c	.	.	.
.	.	1d	-dum	.	.	.	.
.	.	.	.	2B	.	.	.
=142	=142	=142	=142	=142	=142	=142	=142
1.c	ha-	0r	.	2c	-dum	1g]	.
.	.	.	.	1e	ha-	.	.
.	.	.	.	.	.	[1cc	ha-
2c	-bi-	.	.	2e	-bi-	.	.
=143	=143	=143	=143	=143	=143	=143	=143
1c	-ta-	1.g	ha-	1e	-ta-	2cc]	.
.	.	.	.	.	.	2cc	-bi-
1c	-re	.	.	1e	-re	1cc	-ta-
.	.	2g	-bi-	.	.	.	.
=144	=144	=144	=144	=144	=144	=144	=144
1c	fra-	1g	-ta-	2r	.	1cc	-re
.	.	.	.	2e	fra-	.	.
1B	-tres	1g	-re	2d	-tres	1dd	fra-
.	.	.	.	2d	in	.	.
=145	=145	=145	=145	=145	=145	=145	=145
1c	in	1g	fra-	2.e	u-	1g	-tres
.	.	.	.	4d	.	.	.
1A	u-	1f	-tres	4c	.	1a	in
.	.	.	.	4B	.	.	.
.	.	.	.	2c	.	.	.
=146	=146	=146	=146	=146	=146	=146	=146
[0Gl	-num!	1g	in	2d	.	0b	u-
.	.	.	.	2G	.	.	.
.	.	1e	u-	1g	.	.	.
=147	=147	=147	=147	=147	=147	=147	=147
00G]	.	00d	-num!	00g	-num!	00b	-num!
=148||	=148||	=148||	=148||	=148||	=148||	=148||	=148||
*M2/1	*	*M2/1	*	*M2/1	*	*M2/1	*
*met(C|)	*	*met(C|)	*	*met(C|)	*	*met(C|)	*
!!section: Secunda pars: Quoniam illic mandavit
!!!OMD: Secunda pars: Quoniam illic mandavit
0r	.	0r	.	0r	.	0dd	Quo-
=149	=149	=149	=149	=149	=149	=149	=149
0r	.	0r	.	0g	Quo-	1b	-ni-
.	.	.	.	.	.	1b	-am
=150	=150	=150	=150	=150	=150	=150	=150
0r	.	0r	.	1e	-ni-	2r	.
.	.	.	.	.	.	2b	il-
.	.	.	.	1e	-am	2b	-lic
.	.	.	.	.	.	2b	man-
=151	=151	=151	=151	=151	=151	=151	=151
0r	.	0r	.	2r	.	1ee	-da-
.	.	.	.	2e	il-	.	.
.	.	.	.	2e	-lic	1b	-vit
.	.	.	.	2e	man-	.	.
=152	=152	=152	=152	=152	=152	=152	=152
0r	.	0r	.	1a	-da-	2cc	Do-
.	.	.	.	.	.	2cc	-mi-
.	.	.	.	1e	-vit	1g	-nus
=153	=153	=153	=153	=153	=153	=153	=153
0r	.	0r	.	2f	Do-	2r	.
.	.	.	.	2f	-mi-	1cc	be-
.	.	.	.	1c	-nus	.	.
.	.	.	.	.	.	2cc	-ne-
=154	=154	=154	=154	=154	=154	=154	=154
0r	.	0r	.	2r	.	2cc	-di-
.	.	.	.	1f	be-	2cc	-cti-
.	.	.	.	.	.	1cc	-o-
.	.	.	.	2f	-ne-	.	.
=155	=155	=155	=155	=155	=155	=155	=155
0r	.	0r	.	2f	-di-	1a	-nem
.	.	.	.	2f	-cti-	.	.
.	.	.	.	1f	-o-	2r	.
.	.	.	.	.	.	2cc	et
=156	=156	=156	=156	=156	=156	=156	=156
0r	.	0r	.	1d	-nem	1dd	vi-
.	.	.	.	2r	.	1a	-tam
.	.	.	.	2f	et	.	.
=157	=157	=157	=157	=157	=157	=157	=157
0r	.	0r	.	1g	vi-	2r	.
.	.	.	.	.	.	2dd	us-
.	.	.	.	1d	-tam	2dd	-que
.	.	.	.	.	.	2dd	in
=158	=158	=158	=158	=158	=158	=158	=158
0r	.	0r	.	2r	.	2.b	sae-
.	.	.	.	2g	us-	.	.
.	.	.	.	.	.	4cc	.
.	.	.	.	2g	-que	2dd	.
.	.	.	.	2g	in	2dd	-cu-
=159	=159	=159	=159	=159	=159	=159	=159
0r	.	0r	.	2.e	sae-	1g	-lum,
.	.	.	.	4f	.	.	.
.	.	.	.	2g	.	2r	.
.	.	.	.	2g	-cu-	2b	in
=160	=160	=160	=160	=160	=160	=160	=160
0r	.	0r	.	1c	-lum,	1.cc	sae-
.	.	.	.	2r	.	.	.
.	.	.	.	2e	in	2cc	-cu-
=161	=161	=161	=161	=161	=161	=161	=161
0r	.	0d	Quo-	1.f	sae-	1a	-lum.
.	.	.	.	.	.	1r	.
.	.	.	.	2f	-cu-	.	.
=162	=162	=162	=162	=162	=162	=162	=162
0r	.	1B	-ni-	[0d	-lum.	0dd	Quo-
.	.	1B	-am	.	.	.	.
=163	=163	=163	=163	=163	=163	=163	=163
0G	Quo-	2r	.	1d]	.	1b	-ni-
.	.	2B	il-	.	.	.	.
.	.	2B	-lic	1r	.	1b	-am
.	.	2B	man-	.	.	.	.
=164	=164	=164	=164	=164	=164	=164	=164
1E	-ni-	1e	-da-	0g	Quo-	2r	.
.	.	.	.	.	.	2b	il-
1E	-am	1B	-vit	.	.	2b	-lic
.	.	.	.	.	.	2b	man-
=165	=165	=165	=165	=165	=165	=165	=165
2r	.	2c	Do-	1e	-ni-	1ee	-da-
2E	il-	2c	-mi-	.	.	.	.
2E	-lic	1G	-nus	1e	-am	1b	-vit
2E	man-	.	.	.	.	.	.
=166	=166	=166	=166	=166	=166	=166	=166
1A	-da-	2r	.	2r	.	2cc	Do-
.	.	1c	be-	2e	il-	2cc	-mi-
1E	-vit	.	.	2e	-lic	1g	-nus
.	.	2c	-ne-	2e	man-	.	.
=167	=167	=167	=167	=167	=167	=167	=167
2F	Do-	2c	-di-	1a	-da-	2r	.
2F	-mi-	2c	-cti-	.	.	1cc	be-
1C	-nus	1c	-o-	1e	-vit	.	.
.	.	.	.	.	.	2cc	-ne-
=168	=168	=168	=168	=168	=168	=168	=168
2r	.	1A	-nem	2f	Do-	2cc	-di-
1F	be-	.	.	2f	-mi-	2cc	-cti-
.	.	2r	.	1c	-nus	1cc	-o-
2F	-ne-	2c	et	.	.	.	.
=169	=169	=169	=169	=169	=169	=169	=169
2F	-di-	1d	vi-	2r	.	1a	-nem
2F	-cti-	.	.	1f	be-	.	.
1F	-o-	1A	-tam	.	.	2r	.
.	.	.	.	2f	-ne-	2cc	et
=170	=170	=170	=170	=170	=170	=170	=170
1D	-nem	2r	.	2f	-di-	1dd	vi-
.	.	2d	us-	2f	-cti-	.	.
2r	.	2d	-que	1f	-o-	1a	-tam
2F	et	2d	in	.	.	.	.
=171	=171	=171	=171	=171	=171	=171	=171
1G	vi-	2.B	sae-	1d	-nem	2r	.
.	.	.	.	.	.	2dd	us-
.	.	4c	.	.	.	.	.
1D	-tam	2d	.	2r	.	2dd	-que
.	.	2d	-cu-	2f	et	2dd	in
=172	=172	=172	=172	=172	=172	=172	=172
2r	.	1G	-lum,	1g	vi-	2.b	sae-
2G	us-	.	.	.	.	.	.
.	.	.	.	.	.	4cc	.
2G	-que	2r	.	1d	-tam	2dd	.
2G	in	2B	in	.	.	2dd	-cu-
=173	=173	=173	=173	=173	=173	=173	=173
2.E	sae-	2c	sae-	2r	.	2g	.
.	.	2e	.	2g	us-	1cc	.
4F	.	.	.	.	.	.	.
2G	.	1d	-cu-	2g	-que	.	.
2G	-cu-	.	.	2g	in	2b	.
=174	=174	=174	=174	=174	=174	=174	=174
1C	-lum.	0c	-lum.	2.e	sae-	[0cc	-lum.
.	.	.	.	4f	.	.	.
1r	.	.	.	2g	.	.	.
.	.	.	.	2g	-cu-	.	.
=175	=175	=175	=175	=175	=175	=175	=175
0C	Ec-	1r	.	0c	-lum.	0cc]	.
.	.	[1G	Ec-	.	.	.	.
=176	=176	=176	=176	=176	=176	=176	=176
1E	-ce	1G]	.	0r	.	0r	.
1G	quam	1B	-ce	.	.	.	.
=177	=177	=177	=177	=177	=177	=177	=177
0F	bo-	1d	quam	0r	.	0r	.
.	.	[1c	bo-	.	.	.	.
=178	=178	=178	=178	=178	=178	=178	=178
0C	-num,	1c]	.	0c	Ec-	1r	.
.	.	[1G	-num,	.	.	[1g	Ec-
=179	=179	=179	=179	=179	=179	=179	=179
0r	.	0G]	.	1e	-ce	1g]	.
.	.	.	.	1g	quam	1b	-ce
=180	=180	=180	=180	=180	=180	=180	=180
0F	ec-	1r	.	0f	bo-	1dd	quam
.	.	[1c	ec-	.	.	[1cc	bo-
=181	=181	=181	=181	=181	=181	=181	=181
1A	-ce	1c]	.	1c	-num,	1cc]	.
1c	quam	1e	-ce	1r	.	1g	-num,
=182	=182	=182	=182	=182	=182	=182	=182
0B-X	bo-	1g	quam	2r	.	1r	.
.	.	.	.	2d	quam	.	.
.	.	[1f	bo-	4d	bo-	1dd	quam
.	.	.	.	4e	.	.	.
.	.	.	.	4f	.	.	.
.	.	.	.	4g	.	.	.
=183	=183	=183	=183	=183	=183	=183	=183
1F	-num	1f]	.	1a	.	0cc	bo-
1r	.	1c	-num	2g	-num	.	.
.	.	.	.	2c	et	.	.
=184	=184	=184	=184	=184	=184	=184	=184
1r	.	2r	.	2c	quam	0g	-num
.	.	2c	et	2c	iu-	.	.
2r	.	2c	quam	2.e	-cun-	.	.
2C	et	2c	iu-	.	.	.	.
.	.	.	.	4f	.	.	.
=185	=185	=185	=185	=185	=185	=185	=185
2C	quam	2.e	-cun-	1g	.	2r	.
2C	iu-	.	.	.	.	2g	et
.	.	4f	.	.	.	.	.
2.E	-cun-	[1g	.	1e	.	2g	quam
.	.	.	.	.	.	2g	iu-
4F	.	.	.	.	.	.	.
=186	=186	=186	=186	=186	=186	=186	=186
1.G	.	2g]	.	1d	-dum,	2.b	-cun-
.	.	4f	.	.	.	.	.
.	.	4e	.	.	.	4cc	.
.	.	2d	.	2r	.	4dd	.
.	.	.	.	.	.	4b	.
2C	.	2e	.	2g	iu-	2cc	.
=187	=187	=187	=187	=187	=187	=187	=187
2.F	.	2d	.	1a	-cun-	1f	.
.	.	1c	.	.	.	.	.
4E	.	.	.	.	.	.	.
1D	.	.	.	2.f	.	1ff	.
.	.	2B	.	.	.	.	.
.	.	.	.	4g	.	.	.
=188	=188	=188	=188	=188	=188	=188	=188
1C	-dum,	0c	-dum,	2a	.	1ee	-dum,
.	.	.	.	1g	-dum,	.	.
2r	.	.	.	.	.	1r	.
2F	et	.	.	2a	et	.	.
=189	=189	=189	=189	=189	=189	=189	=189
2F	quam	2r	.	2a	quam	0cc	ec-
2F	iu-	2f	et	2a	iu-	.	.
2.A	-cun-	2f	quam	1a	-cun-	.	.
.	.	2f	iu-	.	.	.	.
4B	.	.	.	.	.	.	.
=190	=190	=190	=190	=190	=190	=190	=190
1c	.	1e	-cun-	1g	-dum,	1ee	-ce
2G	-dum,	1d	-dum,	2r	.	1gg	quam
2G	iu-	.	.	2g	iu-	.	.
=191	=191	=191	=191	=191	=191	=191	=191
1B-X	-cun-	2r	.	4d	-cun-	0ff	bo-
.	.	.	.	4e	.	.	.
.	.	2d	iu-	4f	.	.	.
.	.	.	.	4g	.	.	.
2F	-dum,	[1f	-cun-	[1a	.	.	.
2D	iu-	.	.	.	.	.	.
=192	=192	=192	=192	=192	=192	=192	=192
1F	-cun-	1f]	.	1a]	.	1cc	-num
1C	-dum,	1e	-dum,	1g	-dum,	2r	.
.	.	.	.	.	.	2cc	et
=193	=193	=193	=193	=193	=193	=193	=193
2r	.	2r	.	2r	.	2cc	quam
2C	et	2e	et	2g	et	2cc	iu-
2C	quam	2e	quam	2g	quam	2.ee	-cun-
2C	iu-	2e	iu-	2g	iu-	.	.
.	.	.	.	.	.	4ff	.
=194	=194	=194	=194	=194	=194	=194	=194
2.E	-cun-	2.e	-cun-	1.g	-cun-	1.gg	.
4F	.	8dL	.	.	.	.	.
.	.	8cJ	.	.	.	.	.
4G	.	4B	.	.	.	.	.
4E	.	4e	.	.	.	.	.
2F	.	2A	.	2a	.	2cc	.
=195	=195	=195	=195	=195	=195	=195	=195
1BB-X	.	1d	-dum,	1.f	.	2.ff	.
.	.	.	.	.	.	4ee	.
1B-X	.	2r	.	.	.	1dd	.
.	.	2d	iu-	2g	.	.	.
=196	=196	=196	=196	=196	=196	=196	=196
1A	-dum	2e	-cun-	1a	-dum	0cc	-dum
.	.	2c	-dum	.	.	.	.
[1F	ha-	[1f	ha-	2r	.	.	.
.	.	.	.	[2a	ha-	.	.
=197	=197	=197	=197	=197	=197	=197	=197
2F]	.	2f]	.	2a]	.	1.ff	ha-
2F	-bi-	2f	-bi-	2a	-bi-	.	.
1F	-ta-	2c	-ta-	1a	-ta-	.	.
.	.	2c	-re	.	.	2ff	-bi-
=198	=198	=198	=198	=198	=198	=198	=198
1D	-re	1d	fra-	1a	-re	1ff	-ta-
[1F	fra-	[1c	-tres	2r	.	1ff	-re
.	.	.	.	[2a	fra-	.	.
=199	=199	=199	=199	=199	=199	=199	=199
1F]	.	1c]	.	2a]	.	1ff	fra-
.	.	.	.	4g	.	.	.
.	.	.	.	4f	.	.	.
1C	-tres	1c	in	1g	.	1ee	-tres
=200	=200	=200	=200	=200	=200	=200	=200
1D	in	2A	u-	0f	-tres	1ff	in
.	.	2F	.	.	.	.	.
1BB-X	.	1B-X	.	.	.	1dd	u-
=201	=201	=201	=201	=201	=201	=201	=201
0F	u-	1A	-num,	1a	in	[0cc	-num!
.	.	1r	.	1f	u-	.	.
=202	=202	=202	=202	=202	=202	=202	=202
[0C	-num!	1c	in	[0e	-num!	0cc_	.
.	.	1A	u-	.	.	.	.
=203	=203	=203	=203	=203	=203	=203	=203
0C]	.	0G	-num!	0e]	.	0cc]	.
=204	=204	=204	=204	=204	=204	=204	=204
*M3/1	*	*M3/1	*	*M3/1	*	*M3/1	*
*met(3)	*	*met(3)	*	*met(3)	*	*met(3)	*
0.r	.	0.r	.	1r	.	1cc	Glo-
.	.	.	.	1f	Glo-	1cc	-ri-
.	.	.	.	1f	-ri-	1cc	-a
=205	=205	=205	=205	=205	=205	=205	=205
0.r	.	0.r	.	1f	-a	0dd	Pa-
.	.	.	.	0g	Pa-	.	.
.	.	.	.	.	.	1b	-tri,
=206	=206	=206	=206	=206	=206	=206	=206
0.r	.	0.r	.	1e	-tri,	1cc	et
.	.	.	.	1f	et	1a	Fi-
.	.	.	.	1d	Fi-	1b	-li-
=207	=207	=207	=207	=207	=207	=207	=207
1r	.	1c	Glo-	1e	-li-	0.cc	-o,
1F	Glo-	1c	-ri-	0f	-o,	.	.
1F	-ri-	1c	-a	.	.	.	.
=208	=208	=208	=208	=208	=208	=208	=208
1F	-a	0d	Pa-	0.r	.	0.r	.
0G	Pa-	.	.	.	.	.	.
.	.	1B	-tri,	.	.	.	.
=209	=209	=209	=209	=209	=209	=209	=209
1E	-tri,	1c	et	0.r	.	0.r	.
1F	et	1A	Fi-	.	.	.	.
1D	Fi-	1B	-li-	.	.	.	.
=210	=210	=210	=210	=210	=210	=210	=210
1E	-li-	0.c	-o,	1r	.	1ee	et
0F	-o,	.	.	1a	et	1cc	Spi-
.	.	.	.	1f	Spi-	1a	-ri-
=211	=211	=211	=211	=211	=211	=211	=211
0.r	.	0.r	.	1d	-ri-	1.dd	-tu-
.	.	.	.	1.g	-tu-	.	.
.	.	.	.	.	.	2cc	.
.	.	.	.	.	.	2b	.
.	.	.	.	2f	.	2a	.
=212	=212	=212	=212	=212	=212	=212	=212
0.r	.	0.r	.	2e	.	1b	.
.	.	.	.	2d	.	.	.
.	.	.	.	1e	.	0g	-i
.	.	.	.	[1c	-i	.	.
=213	=213	=213	=213	=213	=213	=213	=213
0.r	.	0.r	.	1c]	.	0cc	San-
.	.	.	.	0d	San-	.	.
.	.	.	.	.	.	1b	.
=214	=214	=214	=214	=214	=214	=214	=214
1r	.	1e	et	0A	-cto,	0.cc	-cto.
1A	et	1c	Spi-	.	.	.	.
1F	Spi-	1A	-ri-	1a	et	.	.
=215	=215	=215	=215	=215	=215	=215	=215
1D	-ri-	1.d	-tu-	1f	Spi-	0.r	.
1.G	-tu-	.	.	1d	-ri-	.	.
.	.	2c	.	.	.	.	.
.	.	2B	.	[1g	-tu-	.	.
2F	.	2A	.	.	.	.	.
=216	=216	=216	=216	=216	=216	=216	=216
2E	.	1B	.	2g]	.	0.r	.
2D	.	.	.	2f	.	.	.
1E	.	0G	-i	2e	.	.	.
.	.	.	.	2d	.	.	.
[1C	-i	.	.	1e	.	.	.
=217	=217	=217	=217	=217	=217	=217	=217
1C]	.	0c	San-	1c	-i	0.r	.
0D	San-	.	.	0f	San-	.	.
.	.	1B	.	.	.	.	.
=218	=218	=218	=218	=218	=218	=218	=218
0AA	-cto,	1c	-cto,	0.e	-cto,	1ee	et
.	.	1e	et	.	.	1cc	Spi-
1A	et	1c	Spi-	.	.	[1a	-ri-
=219	=219	=219	=219	=219	=219	=219	=219
1F	Spi-	1A	-ri-	1r	.	1a]	.
1D	-ri-	1.d	-tu-	1a	et	1f	-tu-
[1d	-tu-	.	.	1f	Spi-	1d	-i
.	.	2c	.	.	.	.	.
=220	=220	=220	=220	=220	=220	=220	=220
2d]	.	2B	.	1d	-ri-	1.dd	San-
2c	.	2A	.	.	.	.	.
2B	.	1B	.	1.d	-tu-	.	.
2A	.	.	.	.	.	2cc	.
1B	.	1G	-i	.	.	2b	.
.	.	.	.	2c	.	2a	.
=221	=221	=221	=221	=221	=221	=221	=221
0G	-i	1.g	San-	2B	.	0b	.
.	.	.	.	2A	.	.	.
.	.	.	.	1B	.	.	.
.	.	2f	.	.	.	.	.
[1A	San-	2e	.	[1c	-i	1a	.
.	.	2d	.	.	.	.	.
=222	=222	=222	=222	=222	=222	=222	=222
1A]	.	2e	.	1c]	.	0cc	.
.	.	2c	.	.	.	.	.
0G	.	0d	.	0g	San-	.	.
.	.	.	.	.	.	1b	.
=223	=223	=223	=223	=223	=223	=223	=223
0C	-cto.	0c	-cto.	0e	-cto.	[0.cc	-cto.
1r	.	1r	.	1r	.	.	.
=224	=224	=224	=224	=224	=224	=224	=224
1.c	Sic-	1.e	Sic-	0.r	.	0cc]	.
2A	-ut	2c	-ut	.	.	.	.
2B	e-	2d	e-	.	.	1r	.
2c	.	2e	.	.	.	.	.
=225	=225	=225	=225	=225	=225	=225	=225
1.d	.	1.f	.	0.r	.	0.r	.
2B	.	2d	.	.	.	.	.
2c	.	2e	.	.	.	.	.
2d	.	2f	.	.	.	.	.
=226	=226	=226	=226	=226	=226	=226	=226
0G	-rat	0g	-rat	1.g	Sic-	1.b	Sic-
.	.	.	.	2e	-ut	2g	-ut
1r	.	1r	.	2f	e-	2a	e-
.	.	.	.	2g	.	2b	.
=227	=227	=227	=227	=227	=227	=227	=227
0.r	.	0.r	.	1.a	.	1.cc	.
.	.	.	.	2f	.	2a	.
.	.	.	.	2g	.	2b	.
.	.	.	.	2a	.	2cc	.
=228	=228	=228	=228	=228	=228	=228	=228
1.B	in	0.r	.	0d	-rat	1.dd	.
2G	prin-	.	.	.	.	2b	.
2A	-ci-	.	.	1r	.	2cc	.
2B	.	.	.	.	.	2dd	.
=229	=229	=229	=229	=229	=229	=229	=229
1.c	.	1.e	in	0.r	.	1g	-rat
.	.	.	.	.	.	1r	.
2A	.	2c	prin-	.	.	.	.
2B	.	2d	-ci-	.	.	1r	.
2c	.	2e	.	.	.	.	.
=230	=230	=230	=230	=230	=230	=230	=230
1.d	.	1.f	.	0.r	.	0.r	.
2B	.	2d	.	.	.	.	.
2c	.	2e	.	.	.	.	.
2d	-pi-	2f	-pi-	.	.	.	.
=231	=231	=231	=231	=231	=231	=231	=231
0G	-o,	0g	-o,	1.g	in	1.b	in
.	.	.	.	2e	prin-	2g	prin-
1r	.	1r	.	2f	-ci-	2a	-ci-
.	.	.	.	2g	.	2b	.
=232	=232	=232	=232	=232	=232	=232	=232
0.r	.	0.r	.	1.a	.	1.cc	.
.	.	.	.	2f	.	2a	.
.	.	.	.	2g	.	2b	.
.	.	.	.	2a	-pi-	2cc	.
=233	=233	=233	=233	=233	=233	=233	=233
0.r	.	1.B	in	0d	-o,	1.dd	.
.	.	2G	prin-	.	.	2b	.
.	.	2A	-ci-	1r	.	2cc	.
.	.	2B	.	.	.	2dd	-pi-
=234	=234	=234	=234	=234	=234	=234	=234
0.r	.	1.c	.	1.e	in	1g	-o,
.	.	.	.	.	.	1r	.
.	.	2A	.	2c	prin-	.	.
.	.	2B	.	2d	-ci-	1r	.
.	.	2c	.	2e	.	.	.
=235	=235	=235	=235	=235	=235	=235	=235
0.r	.	1.d	.	1.f	.	1.a	in
.	.	2B	.	2d	.	2dd	prin-
.	.	2c	.	2e	.	2cc	-ci-
.	.	2d	-pi-	2f	.	2a	-pi-
=236	=236	=236	=236	=236	=236	=236	=236
1.E	in	0G	-o,	1.g	.	1b	-o,
.	.	.	.	.	.	1r	.
2C	prin-	.	.	2e	.	.	.
2D	-ci-	1r	.	2f	.	1r	.
2E	.	.	.	2g	-pi-	.	.
=237	=237	=237	=237	=237	=237	=237	=237
1.F	.	1.A	in	1c	-o,	1.a	in
.	.	.	.	1r	.	.	.
2D	.	2d	prin-	.	.	2f	prin-
2E	.	2c	-ci-	1r	.	2g	-ci-
2F	.	2A	.	.	.	2a	.
=238	=238	=238	=238	=238	=238	=238	=238
1.G	.	2.B	.	1.d	in	2d	.
.	.	.	.	.	.	2dd	.
.	.	4c	.	.	.	.	.
.	.	2d	.	.	.	2b	.
2E	.	2e	.	2g	prin-	1cc	.
2F	.	1d	-pi-	2f	-ci-	.	.
2G	-pi-	.	.	2d	-pi-	2b	-pi-
=239	=239	=239	=239	=239	=239	=239	=239
[0.C	-o,	0c	-o,	2.e	.	0cc	-o,
.	.	.	.	4f	.	.	.
.	.	.	.	2g	.	.	.
.	.	.	.	2a	.	.	.
.	.	1r	.	1g	.	1r	.
=240	=240	=240	=240	=240	=240	=240	=240
0C]	.	0e	et	0c	-o,	1gg	et
.	.	.	.	.	.	1gg	nunc,
1r	.	1d	nunc,	1r	.	1ff	et
=241	=241	=241	=241	=241	=241	=241	=241
0.r	.	1c	et	0.r	.	2ee	sem-
.	.	.	.	.	.	2dd	.
.	.	0f	sem-	.	.	2cc	.
.	.	.	.	.	.	2b	.
.	.	.	.	.	.	1a	.
=242	=242	=242	=242	=242	=242	=242	=242
0E	et	0e	-per,	1g	et	0g	-per,
.	.	.	.	1g	nunc,	.	.
1D	nunc,	1r	.	1f	et	1r	.
=243	=243	=243	=243	=243	=243	=243	=243
1C	et	0.r	.	2e	sem-	0.r	.
.	.	.	.	2d	.	.	.
0F	sem-	.	.	2c	.	.	.
.	.	.	.	2B	.	.	.
.	.	.	.	1A	.	.	.
=244	=244	=244	=244	=244	=244	=244	=244
0E	-per,	1g	et	2G	-per,	0b	et
.	.	.	.	2A	.	.	.
.	.	1g	nunc,	2B	.	.	.
.	.	.	.	2c	.	.	.
1r	.	1f	et	2d	.	1a	nunc,
.	.	.	.	2A	.	.	.
=245	=245	=245	=245	=245	=245	=245	=245
0.r	.	2e	sem-	2c	.	1g	et
.	.	2d	.	2B	.	.	.
.	.	2c	.	2c	.	0cc	sem-
.	.	2B	.	2d	.	.	.
.	.	1A	.	2e	.	.	.
.	.	.	.	2f	.	.	.
=246	=246	=246	=246	=246	=246	=246	=246
0E	et	0G	-per,	1g	et	0b	-per,
.	.	.	.	1e	nunc,	.	.
1D	nunc,	1r	.	1f	et	1r	.
=247	=247	=247	=247	=247	=247	=247	=247
1C	et	0.r	.	1e	sem-	0.r	.
0F	sem-	.	.	1c	.	.	.
.	.	.	.	1d	.	.	.
=248	=248	=248	=248	=248	=248	=248	=248
0E	-per,	0e	et	0G	-per,	1gg	et
.	.	.	.	.	.	1ee	nunc,
1r	.	1d	nunc,	1r	.	1ff	et
=249	=249	=249	=249	=249	=249	=249	=249
0.r	.	1c	et	0.r	.	1ee	sem-
.	.	0f	sem-	.	.	1cc	.
.	.	.	.	.	.	1dd	.
=250	=250	=250	=250	=250	=250	=250	=250
1c	et	0e	-per,	2.e	et	1g	-per,
.	.	.	.	4f	.	.	.
1c	nunc,	.	.	2g	.	1ee	et
.	.	.	.	1a	nunc,	.	.
1B	et	1r	.	.	.	1dd	nunc,
.	.	.	.	2g	et	.	.
=251	=251	=251	=251	=251	=251	=251	=251
2A	sem-	1e	sem-	1a	sem-	1cc	et
2G	.	.	.	.	.	.	.
2F	.	2d	.	1A	.	0ff	sem-
2E	.	1c	.	.	.	.	.
1D	.	.	.	1F	.	.	.
.	.	2B	.	.	.	.	.
=252	=252	=252	=252	=252	=252	=252	=252
0C	-per,	0c	-per,	0G	-per,	0ee	-per,
1r	.	1r	.	1r	.	1r	.
=253	=253	=253	=253	=253	=253	=253	=253
1C	et	0e	et	1g	et	1cc	et
1C	nunc,	.	.	1g	nunc,	1cc	nunc,
1G	et	1d	nunc,	1g	et	1b	et
=254	=254	=254	=254	=254	=254	=254	=254
1A	sem-	1c	et	2f	sem-	2a	sem-
.	.	.	.	2e	.	2g	.
1B-X	.	0f	sem-	2d	.	2f	.
.	.	.	.	2c	.	2e	.
1BB-X	.	.	.	2B-X	.	1d	.
.	.	.	.	2A	.	.	.
=255	=255	=255	=255	=255	=255	=255	=255
[0.C	-per,	[0.e	-per,	[0.G	.	0c	-per,
.	.	.	.	.	.	1r	.
=256	=256	=256	=256	=256	=256	=256	=256
0C]	.	0.e]	.	1G]	.	0c	et
.	.	.	.	0A	.	.	.
1r	.	.	.	.	.	1c	in
=257	=257	=257	=257	=257	=257	=257	=257
0C	et	0.r	.	0G	-per,	1.e	sae-
.	.	.	.	.	.	2d	.
1C	in	.	.	1r	.	2e	.
.	.	.	.	.	.	2f	.
=258	=258	=258	=258	=258	=258	=258	=258
1.E	sae-	0.r	.	0G	et	0g	.
2D	.	.	.	.	.	.	.
2E	.	.	.	1G	in	1g	-cu-
2F	.	.	.	.	.	.	.
=259	=259	=259	=259	=259	=259	=259	=259
0G	.	0.r	.	1.B	sae-	0d	-la,
.	.	.	.	2A	.	.	.
1G	-cu-	.	.	2B	.	1r	.
.	.	.	.	2c	.	.	.
=260	=260	=260	=260	=260	=260	=260	=260
0D	-la,	0.r	.	0d	.	0f	et
1r	.	.	.	1d	-cu-	1f	in
=261	=261	=261	=261	=261	=261	=261	=261
0F	et	0.r	.	1A	-la,	1.a	sae-
.	.	.	.	0c	et	.	.
.	.	.	.	.	.	2g	.
1F	in	.	.	.	.	2a	.
.	.	.	.	.	.	2b	.
=262	=262	=262	=262	=262	=262	=262	=262
1.A	sae-	0c	et	1c	in	0cc	.
.	.	.	.	1.e	sae-	.	.
2G	.	.	.	.	.	.	.
2A	.	1c	in	.	.	1cc	-cu-
2B	.	.	.	2d	.	.	.
=263	=263	=263	=263	=263	=263	=263	=263
0c	.	1.e	sae-	2e	.	1g	-la
.	.	.	.	2f	.	.	.
.	.	.	.	0g	.	1cc	sae-
.	.	2d	.	.	.	.	.
1c	-cu-	2e	.	.	.	1cc	-cu-
.	.	2f	.	.	.	.	.
=264	=264	=264	=264	=264	=264	=264	=264
0.G	-la	0g	.	1g	-cu-	1.b	-lo-
.	.	.	.	1d	-la	.	.
.	.	.	.	.	.	2cc	.
.	.	1g	-cu-	1r	.	2dd	.
.	.	.	.	.	.	2b	.
=265	=265	=265	=265	=265	=265	=265	=265
0.r	.	0d	-la	0f	sae-	1.a	.
.	.	.	.	.	.	2b	.
.	.	1r	.	1f	-cu-	2cc	.
.	.	.	.	.	.	2a	.
=266	=266	=266	=266	=266	=266	=266	=266
0.r	.	0.r	.	1.e	-lo-	1.g	.
.	.	.	.	2f	.	2a	.
.	.	.	.	2g	.	2b	.
.	.	.	.	2e	.	2cc	.
=267	=267	=267	=267	=267	=267	=267	=267
0.r	.	0.r	.	1.d	.	2dd	.
.	.	.	.	.	.	2b	.
.	.	.	.	.	.	1.a	.
.	.	.	.	2e	.	.	.
.	.	.	.	2f	.	.	.
.	.	.	.	2g	.	2b	.
=268	=268	=268	=268	=268	=268	=268	=268
0.r	.	0.r	.	1.a	.	2cc	.
.	.	.	.	.	.	2dd	.
.	.	.	.	.	.	1ee	.
.	.	.	.	2g	.	.	.
.	.	.	.	1f	.	1dd	-rum,
=269	=269	=269	=269	=269	=269	=269	=269
0.r	.	0.r	.	1e	-rum,	0cc	a-
.	.	.	.	0d	a-	.	.
.	.	.	.	.	.	1b	.
=270	=270	=270	=270	=270	=270	=270	=270
0F	sae-	1r	.	0c	-men,	0.cc	-men,
.	.	0c	sae-	.	.	.	.
1F	-cu-	.	.	1r	.	.	.
=271	=271	=271	=271	=271	=271	=271	=271
1.E	-lo-	1c	-cu-	1.g	sae-	0.r	.
.	.	1.B	-lo-	.	.	.	.
2F	.	.	.	2f	-cu-	.	.
2G	.	.	.	2d	-lo-	.	.
2E	.	2c	.	2e	.	.	.
=272	=272	=272	=272	=272	=272	=272	=272
1.D	.	2d	.	2f	.	0.r	.
.	.	2B	.	2d	.	.	.
.	.	1.A	.	1f	.	.	.
2E	.	.	.	.	.	.	.
2F	.	.	.	1f	-rum,	.	.
2G	.	2B	.	.	.	.	.
=273	=273	=273	=273	=273	=273	=273	=273
1.A	.	2c	.	2e	a-	1cc	sae-
.	.	2d	.	2d	.	.	.
.	.	1e	.	2c	.	1cc	-cu-
2G	.	.	.	2B	.	.	.
1F	.	1d	-rum,	1A	.	1dd	-lo-
=274	=274	=274	=274	=274	=274	=274	=274
1E	-rum,	0c	a-	1G	.	1ee	-rum,
0D	a-	.	.	1A	.	0ff	a-
.	.	1B	.	1F	.	.	.
=275	=275	=275	=275	=275	=275	=275	=275
0C	-men,	[0.c	-men,	1G	.	2ee	.
.	.	.	.	.	.	2dd	.
.	.	.	.	1A	.	2cc	.
.	.	.	.	.	.	2b	.
1r	.	.	.	1F	-men,	2a	.
.	.	.	.	.	.	2g	.
=276	=276	=276	=276	=276	=276	=276	=276
0F	sae-	0c]	.	1r	.	1.a	.
.	.	.	.	0c	sae-	.	.
.	.	.	.	.	.	2b	.
1F	-cu-	1r	.	.	.	2cc	.
.	.	.	.	.	.	2a	.
=277	=277	=277	=277	=277	=277	=277	=277
1.E	-lo-	0.r	.	1c	-cu-	0.g	-men,
.	.	.	.	1.B	-lo-	.	.
2F	.	.	.	.	.	.	.
2G	.	.	.	.	.	.	.
2E	.	.	.	2c	.	.	.
=278	=278	=278	=278	=278	=278	=278	=278
1D	.	0f	sae-	2d	.	1r	.
.	.	.	.	2B	.	.	.
1.F	.	.	.	1.A	.	0cc	sae-
.	.	1f	-cu-	.	.	.	.
2G	.	.	.	2B	.	.	.
=279	=279	=279	=279	=279	=279	=279	=279
1A	.	1.e	-lo-	2c	.	1cc	-cu-
.	.	.	.	2A	.	.	.
1.E	.	.	.	1.G	.	1.b	-lo-
.	.	2f	.	.	.	.	.
.	.	2g	.	.	.	.	.
4D	.	2e	.	2A	.	2cc	.
4C	.	.	.	.	.	.	.
=280	=280	=280	=280	=280	=280	=280	=280
1G	.	1.d	.	2.B	.	2dd	.
.	.	.	.	.	.	2b	.
.	.	.	.	4c	.	.	.
1.D	.	.	.	1.d	.	1.a	.
.	.	2e	.	.	.	.	.
.	.	2f	.	.	.	.	.
2G	.	2g	.	2B	.	2b	.
=281	=281	=281	=281	=281	=281	=281	=281
1F	.	1.a	.	2.A	.	2cc	.
.	.	.	.	.	.	2dd	.
.	.	.	.	4B	.	.	.
1C	.	.	.	1c	.	1ee	.
.	.	2g	.	.	.	.	.
2D	.	1f	.	2A	.	1dd	-rum.
2BB-X	.	.	.	2B-X	.	.	.
=282	=282	=282	=282	=282	=282	=282	=282
1C	-rum.	1e	-rum.	1.G	-rum.	0cc	A-
0G	A-	0d	A-	.	.	.	.
.	.	.	.	1.g	A-	.	.
.	.	.	.	.	.	1b	.
=283	=283	=283	=283	=283	=283	=283	=283
*M2/1	*	*M2/1	*	*M2/1	*	*M2/1	*
*met(C|)	*	*met(C|)	*	*met(C|)	*	*met(C|)	*
[0C	-men.	0c	-men.	1e	-men.	0cc	-men.
.	.	.	.	1r	.	.	.
=284	=284	=284	=284	=284	=284	=284	=284
0C]	.	0r	.	0c	Ec-	1r	.
.	.	.	.	.	.	[1g	Ec-
=285	=285	=285	=285	=285	=285	=285	=285
0r	.	0r	.	1e	-ce	1g]	.
.	.	.	.	1g	quam	1b	-ce
=286	=286	=286	=286	=286	=286	=286	=286
0r	.	0r	.	0f	bo-	1dd	quam
.	.	.	.	.	.	[1cc	bo-
=287	=287	=287	=287	=287	=287	=287	=287
0r	.	0r	.	1c	-num	1cc]	.
.	.	.	.	2r	.	1g	-num
.	.	.	.	2c	et	.	.
=288	=288	=288	=288	=288	=288	=288	=288
0r	.	0r	.	2c	quam	2r	.
.	.	.	.	2c	iu-	2g	et
.	.	.	.	2.e	-cun-	2g	quam
.	.	.	.	.	.	2g	iu-
.	.	.	.	4f	.	.	.
=289	=289	=289	=289	=289	=289	=289	=289
0r	.	0r	.	1.g	.	2.b	-cun-
.	.	.	.	.	.	4cc	.
.	.	.	.	.	.	2dd	.
.	.	.	.	2c	.	2ee	.
=290	=290	=290	=290	=290	=290	=290	=290
0r	.	0r	.	2.f	.	2dd	.
.	.	.	.	.	.	1cc	.
.	.	.	.	4e	.	.	.
.	.	.	.	1d	.	.	.
.	.	.	.	.	.	2b	.
=291	=291	=291	=291	=291	=291	=291	=291
0F	Ec-	1r	.	1c	-dum,	1cc	-dum,
.	.	[1c	Ec-	1f	ec-	1r	.
=292	=292	=292	=292	=292	=292	=292	=292
1A	-ce	1c]	.	2e	-ce	0cc	ec-
.	.	.	.	2a	quam	.	.
1c	quam,	1e	-ce	2.g	bo-	.	.
.	.	.	.	4f	.	.	.
=293	=293	=293	=293	=293	=293	=293	=293
0C	ec-	1g	quam,	4e	.	1ee	-ce
.	.	.	.	4d	.	.	.
.	.	.	.	1e	.	.	.
.	.	[1G	ec-	.	.	1gg	quam
.	.	.	.	4d	.	.	.
.	.	.	.	4c	.	.	.
=294	=294	=294	=294	=294	=294	=294	=294
1E	-ce	1G]	.	4B	.	2.gg	bo-
.	.	.	.	4G	.	.	.
.	.	.	.	1g	.	.	.
.	.	.	.	.	.	4ff	.
1G	quam	1B	-ce	.	.	4ee	.
.	.	.	.	.	.	4dd	.
.	.	.	.	2d	.	[2dd	.
=295	=295	=295	=295	=295	=295	=295	=295
0F	bo-	1d	quam	0f	.	2dd]	.
.	.	.	.	.	.	4cc	.
.	.	.	.	.	.	4b	.
.	.	[1c	bo-	.	.	1a	.
=296	=296	=296	=296	=296	=296	=296	=296
1C	-num,	1c]	.	1e	.	1g	-num,
1r	.	1G	-num,	1d	-num,	[1g	ec-
=297	=297	=297	=297	=297	=297	=297	=297
0G	ec-	1r	.	1r	.	1g]	.
.	.	1g	ec-	[1d	ec-	1b	-ce
=298	=298	=298	=298	=298	=298	=298	=298
1B	-ce	1g	-ce	1d]	.	1dd	quam
1d	quam	1f	quam	1f	-ce	2.a	bo-
.	.	.	.	.	.	4b	.
=299	=299	=299	=299	=299	=299	=299	=299
0c	bo-	1.e	bo-	1a	quam	0cc	.
.	.	.	.	[1g	bo-	.	.
.	.	4d	.	.	.	.	.
.	.	4c	.	.	.	.	.
=300	=300	=300	=300	=300	=300	=300	=300
1G	-num	2e	.	1g]	.	1b	-num
.	.	2d	-num	.	.	.	.
2r	.	2r	.	1d	-num	1r	.
2G	et	2g	et	.	.	.	.
=301	=301	=301	=301	=301	=301	=301	=301
2G	quam	2g	quam	2r	.	2r	.
2G	iu-	2g	iu-	2g	et	2dd	et
2.B	-cun-	2d	-cun-	2g	quam	2dd	quam
.	.	2g	.	2b	iu-	2dd	iu-
4c	.	.	.	.	.	.	.
=302	=302	=302	=302	=302	=302	=302	=302
1.d	.	1.f	.	2.a	-cun-	2.ff	-cun-
.	.	.	.	4g	.	4ee	.
.	.	.	.	2a	.	2ff	.
2G	.	2d	.	2b	.	[2gg	.
=303	=303	=303	=303	=303	=303	=303	=303
2.c	.	1e	.	1g	-dum,	4gg]	.
.	.	.	.	.	.	4ff	.
.	.	.	.	.	.	4ee	.
4B	.	.	.	.	.	4dd	.
1A	.	2f	.	1r	.	[1cc	.
.	.	[2e	.	.	.	.	.
=304	=304	=304	=304	=304	=304	=304	=304
0G	-dum	2e]	.	2r	.	2cc]	.
.	.	4d	.	2g	iu-	4b	.
.	.	4c	.	.	.	4a	.
.	.	1d	.	1g	-cun-	1b	.
=305	=305	=305	=305	=305	=305	=305	=305
1.c	ha-	1c	-dum	1g	-dum	1e	-dum
.	.	1r	.	2r	.	2r	.
2c	-bi-	.	.	[2g	ha-	[2ee	ha-
=306	=306	=306	=306	=306	=306	=306	=306
1c	-ta-	2r	.	2g]	.	2ee]	.
.	.	1e	ha-	2g	-bi-	2ee	-bi-
1c	-re	.	.	2g	-ta-	2ee	-ta-
.	.	2e	-bi-	2g	-re	2ee	-re
=307	=307	=307	=307	=307	=307	=307	=307
1c	fra-	2e	-ta-	1g	fra-	1ee	fra-
.	.	2e	-re	.	.	.	.
1B	-tres	1g	fra-	1G	-tres	2dd	-tres
.	.	.	.	.	.	2gg	in
=308	=308	=308	=308	=308	=308	=308	=308
1c	in	1e	-tres	2r	.	4gg	u-
.	.	.	.	.	.	4ff	.
.	.	.	.	2g	in	4ee	.
.	.	.	.	.	.	4dd	.
1A	u-	1r	.	4c	u-	2.ee	.
.	.	.	.	4d	.	.	.
.	.	.	.	4e	.	.	.
.	.	.	.	4f	.	8ddL	.
.	.	.	.	.	.	8ccJ	.
=309	=309	=309	=309	=309	=309	=309	=309
0G	-num,	2r	.	2g	.	2b	.
.	.	2g	in	2e	.	1cc	.
.	.	1g	u-	1d	.	.	.
.	.	.	.	.	.	2b	.
=310	=310	=310	=310	=310	=310	=310	=310
1.F	ha-	[0cl	-num!	1a	-num,	1cc	-num,
.	.	.	.	2r	.	2r	.
2F	-bi-	.	.	[2f	ha-	[2a	ha-
=311	=311	=311	=311	=311	=311	=311	=311
1F	-ta-	0c_	.	2f]	.	2a]	.
.	.	.	.	2f	-bi-	2a	-bi-
1F	-re	.	.	2f	-ta-	2a	-ta-
.	.	.	.	2f	-re	2a	-re
=312	=312	=312	=312	=312	=312	=312	=312
1F	fra-	0c_	.	2f	fra-	1a	fra-
.	.	.	.	2c	-tres	.	.
1E	-tres	.	.	2r	.	2g	-tres
.	.	.	.	2g	in	2cc	in
=313	=313	=313	=313	=313	=313	=313	=313
1F	in	0c_	.	4a	u-	4cc	u-
.	.	.	.	4g	.	4b	.
.	.	.	.	4f	.	4a	.
.	.	.	.	4e	.	4g	.
1F	u-	.	.	1f	.	2.a	.
.	.	.	.	.	.	8gL	.
.	.	.	.	.	.	8fJ	.
=314	=314	=314	=314	=314	=314	=314	=314
[0Cl	-num!	0c_	.	1g	-num,	1e	-num,
.	.	.	.	2r	.	2r	.
.	.	.	.	2g	in	2ee	in
=315	=315	=315	=315	=315	=315	=315	=315
0C_	.	0c_	.	4g	u-	4ee	u-
.	.	.	.	4f	.	4dd	.
.	.	.	.	4e	.	4cc	.
.	.	.	.	4d	.	4b	.
.	.	.	.	1e	.	2.cc	.
.	.	.	.	.	.	8bL	.
.	.	.	.	.	.	8aJ	.
=316	=316	=316	=316	=316	=316	=316	=316
00C]	.	00c]	.	00el	-num!	00gl	-num!
==	==	==	==	==	==	==	==
*-	*-	*-	*-	*-	*-	*-	*-
!!!system-decoration: [*]
!!!RDF**kern: i = editorial accidental
!!!RDF**kern: l = terminal long
!!!PTL: <i> New Senfl Edition: Motets for Four Voices (A-I) </i>
!!!PPR: Hollitzer Verlag
!!!PC#: Denkmäler der Tonkunst in Österreich 163.1
!!!PDT: 2021
!!!PED: Scott Lee Edwards, Stefan Gasch, and Sonja Tröster
!!!YEC: Copyright 2021 Denkmäler der Tonkunst in Österreich
!!!YEM: CC-BY-NC 4.0 (https://creativecommons.org/licenses/by-nc/4.0/legalcode)
!!!EED: Benjamin Ory
!!!EEV: 2025/2/23
!!!verovio: header encoded
!!!header-left: @{PTL}\n@{PED}, eds.\n@{PC#} (@{PDT})&nbsp;\n
!!!header-right:
!!!header-center: